X:1
T:To A Wild Rose
T:To a Wild Rose
T:Edward MacDowell (1860 - 1908) Freie Bearb.: Fabian Payr
C:Edward MacDowell
%%score 1 ( 2 3 )
L:1/8
Q:1/4=60
M:2/4
K:C
V:1 treble nm="Nyckelharpa"
V:2 treble-8 nm="Guitar"
V:3 treble-8 
V:1
"^With simple tenderness"!p! (vEG) uG2 | (DG) G2 |!<(! (E!<)!G)(Ac) |!>(! A2!>)! E2 |!p! (A,D) D2 | %5
 E2 B,2 | (A,D) D2 | !breath!C4 |!pp! (vEG) G2 | (DG) G2 |!<(! (E!<)!G)(Ac) | B2!mp! A2 | %12
!p! c2!>(! A2!>)! | G2 E2 | (A,D) D2 |!pp! !breath!C4 |!>(! vG3!>)! D | (FC) C2 | %18
"_cresc." (ED)(CD) | E2 G2 | vB4 | (uBAGA) | B4 | (uBAGA) |!f! (Bd) d2 | (df) f2 | %26
"_rit.""_dim." (af) (af) | !breath!a4 |!p! (vEG) G2 | (DG) G2 |!<(! (E!<)!G)(Ac) |!>(! A2!>)! E2 | %32
 (A,D) D2 | E2 B,2 | (A,D) D2 | !breath!C4 |!>(! vG3!>)! ^F | (FC) C2 |!>(! (E!>)!D)(CD) | E2 G2- | %40
!>(! (G3!>)! ^F) | (=FC) C2 | (ED)(CD) | E2 G2 |!>(! E!>)!DCD |!<(! E2!<)!!>(! G2!>)! |!pp! c4 | %47
 G,4 | (A, C3-) | C4- | C2 z2 |] %51
V:2
 z !2!E !1![Gc]2 | z !4!F !0![GB]2 | z !2!E !3!!1![Ac]2 | z !2!^F !4!!1![cd]2 | %4
 z !4!=F !2!!0![AB]2 | z !2!E !0![GB]2 | z !4!=F !2!!0![AB]2 | !1![EGc]4 | z E [Gc]2 | z F [GB]2 | %10
 z E [Ac]2 | z ^F [cd]2 | z !2!E !3!!1![Ac]2 | z !2!E !0![GB]2 | z !4!=F !2!!0![AB]2 | [EGc]4 | %16
 z !2!F [GB]2 | z !3!F !2!!1![Ac]2 | z"^III" !3!B [Fd]2 | z !2!E !0!!1![Gc]2 | z E [Gc]E | %21
 z"^I" _E [Ac]E | z !0!G !1![ce]G | z"^I" _E [Ac]E | z F [AB]F | z F [AB]F | z A [Bf]2 | %27
 !arpeggio![G,ABf]4 | z E [Gc]2 | z F [GB]2 | z E [Ac]2 | z ^F [cd]2 | z =F [AB]2 | z E [GB]2 | %34
 z =F [AB]2 | [EGc]4 |"^III" z !2!B [dg]2 | z !2!A"^2""^I" [cf]2 | z"^3""^I" _A !4![df]2 | %39
 z !0!G !1!!0![ce]2 |"^III" z !2!B [dg]2 | z !2!A !4!!1![df]2 | z"^3""^I" _A !4![df]2 | %43
 z !0!G !1!!0![ce]2 | z"^3""^I" _A !4![df]2 | z G [ce]2 | z !3!A !1!!0![ce]2 | z !4!F !0![GB]2 | %48
!ppp! z2 [Gc]2 | z4 | z4 |] %51
V:3
 !3!C4 | !3!C4 | !0!A,4 | A,4 | !3!G,4 | !0!E,4 | !3!G,4 | !3!C4 | C4 | C4 | A,4 | A,4 | !4!G,4 | %13
 !0!E,4 | !3!G,4 | C4 | !4!D4 | !0!A,4 | !2!_A,4 | !3!G,4 | !0!E,4 | !2!^F,4 | !3!G,4 | !2!^F,4 | %24
 G,4 | B,4 | G,4 | x4 | C4 | C4 | A,4 | A,4 | G,4 | E,4 | G,4 | C4 | C4 | !3!C4 | !3!C4 | !3!C4 | %40
 C4 | !3!C4 | !3!C4 | !3!C4 | !3!C4 | C4 | !2!^F,4 | !3!G,4 | C4 | C4- | C2 z2 |] %51

